X:1
T:Hard destinies are love and beauty - Wilbye
T:#
%%score 1 2 3 4
L:1/8
Q:1/4=120
M:4/4
K:C
V:1 treble nm="Soprano I"
V:2 treble nm="Soprano II"
V:3 treble nm="Alto" snm="A"
V:4 treble-8 nm="Tenor" snm="T"
V:1
"^Hard destinies are love and beauty parted""^2nd part of a 2-part madrigal: 1st part is \"Down in a valley were Alexis trips\".""^John Wilbye\n (1574-1638)"!p! B4 c4- | %1
w: Hard des\-|
 c4 B4 | A2 (Bc) d4- | d2 c2 B2 A2 | ^G4 G4 |[M:4/4] z8 |!pp! e8 | c4 c4 | d6 c2 | B8 | E8 | z8 | %12
w: * ti-|nies are * love|* and beau- ty|part- ed!||Fair|Daph- ne|so dis-|dain-|ful!||
 z4 A4 | c6 c2 | (B4 G4) | A8 | c4 B4 | z2!mf! e2 e2 e2 | (edcB A2) A2 | (dcBA GF) E2 | %20
w: fair|Daph- ne|so *|dis-|dain- ful!|Cu- pid, thy|shafts * * * * are|too * * * * * un-|
 (AB) c2 B4 | A8 | z8 | z8 | z8 | z4 z2!p! c2 | c3 d e2 c2 | B4 G4 | z8 | z4 e4 | c2 c4 d2- | %31
w: just\- * ly dart-|ed;||||Fond|love, thy wounds be|pain- ful,||fond|love, thy wounds|
 d2 c2 B2 B2 | z4"^cresc." G4 | A4 B4 | c4 c4- | c4 B4 | c4"^dim." e4 | e4 (d2 c2) | B8- | B4 A4 | %40
w: * be pain- ful:|But|sith my|love- ly|* jew-|el Is|prov'd so *|coy|* and|
 (A4 ^G4) | A4 z4 | z8 | z2!mf! e2 d2 c2 | (BAGF E2) ^F2 | ^G3 G G2 A2 | B4 A4 | z8 | %48
w: cru\- *|el,||I'll live and|fro\- * * * * lic|in her beau- ty's|trea- sure,||
 z2!f! c2 B2 A2 | (GFED EFG)A | B3 c d2 e2 | d8 | c8 | z8 | z8 |!p! c8- | c4 B2 A2 | B6 A2 | ^G8 | %59
w: I'll live and|fro\- * * * * * * lic|in her beau- ty's|trea-|sure,|||But|* lan- guish,|faint, and|die,|
 z4 ^F4- | F4 E2 D2 | E6 D2 | ^C4 z4 | z8 | z8 | z8 | z4 A4- | A4 ^F2 G2 | A4 E4 | E4 z4 | z8 | %71
w: but|* lan- guish,|faint, and|die,||||but|* lan- guish,|faint, and|die,||
 z4!pp! d4- | d4 ^c2 B2 | ^c4 d4 | e8- | e4 e2 d2- | d2 (^cd) (e2 B2) | ^c4 z2!mf! e2 | %78
w: but|* lan- guish,|faint, and|die|* in her|* dis\- * plea\- *|sure. I'll|
 d2 =c2 (BAGF | E4) ^F4 | G4 A4 | B4 B2 (A2- | A2 ^G2) A2!f! c2 | B2 A2 (GFED | C4) D4 | %85
w: live and fro\- * * *|* lic|in her|beau- ty's trea\-|* * sure, I'll|live and fro\- * * *|* lic|
 E2 (e4 dc) | B2 d4 (c2- | c2 BA B4) | c6!p! (BA) | (^G4 A4- | A4 ^G4) | z8 | e8- | e4 d2 c2 | %94
w: in her * *|beau- ty's trea\-||sure, But *|lan\- *|* guish,||but|* lan- guish,|
 B4 B4 | A8- | A4 A4- | A4 G2 ^F2 | E6 D2 | ^C4 z4 | z2 E2 E2 ^F2 | ^G8 | A8 | z4 d4- | d4 ^c2 B2 | %105
w: faint, and|die,|* but|* lan- guish,|faint, and|die,|in her dis-|plea-|sure,|but|* lan- guish,|
 ^c4 d4 | A4!pp! A4- | A4 ^F2 G2 | A4 E4 | E4 z4 | z4 A4- | A4 ^G2 ^F2 | (^G4 A4- | A4 ^G4) | %114
w: faint, and|die, but|* lan- guish,|faint, and|die|in|* her dis-|plea\- *||
 A16 |] %115
w: sure.|
V:2
!p! ^G4 A4- | A4 ^G4 | A6 (Bc) | d6 c2 | B4 B4 |[M:4/4] E8 | E4 z4 |!pp! A8 | A4 B4 | ^G8 | %10
w: Hard des\-|* ti-|nies are *|love and|beau- ty|part-|ed!|Fair|Daph- ne|so|
 A4 A4- | A4 ^G4 | A8- | A8 | z8 | z8 | z4!mf! e4 | e2 e2 (edcB | A2) c2 (cBAG | F2) (dc BAGF) | %20
w: dis- dain\-||ful!||||Cu-|pid, thy shafts * * *|* are too * * *|* un * * * * *|
 E2 A4 ^G2 | A4 z4 | z8 | z8 | z8 | z2!p! A2 A3 B | c2 A2 G2 A2 | z4 B4 | c3 d e2 (d2- | %29
w: just- ly dart-|ed;||||Fond love, thy|wounds be pain- ful,|fond|love, thy wounds be|
 d2 c2) B4 | A4 z4 | z8 |"^cresc." e8 | e4 d4 | c4 e4 | d8 | c8- | c4"^dim." (B2 A2) | ^G6 A2 | %39
w: * * pain-|ful:||But|sith my|love- ly|jew-|el|* Is *|prov'd so|
 B4 c4 | B8 | A6!mf! e2 | d2 c2 (BAGF | E4) ^F4 | G4 A4 | B4 B2 (A2- | A2 ^G2) A2!f! c2 | %47
w: coy and|cru-|el, I'll|live and fro\- * * *|* lic|in her|beau- ty's trea\-|* * sure, I'll|
 B2 A2 (GFED | C4) D4 | E2 (e4 dc) | B2 d4 (c2- | c2 BA B4) | c6!p! (BA) | (^G4 A4- | A4 ^G4) | %55
w: live and fro\- * * *|* lic|in her * *|beau- ty's trea\-||sure, But *|lan\- *|* guish,|
 z8 | e8- | e4 d2 c2 | B4 B4 | A8- | A4 A4- | A4 G2 ^F2 | E6 D2 | ^C4 z4 | z2 E2 E2 ^F2 | ^G8 | %66
w: |but|* lan- guish,|faint, and|die,|* but|* lan- guish,|faint, and|die,|in her dis-|plea-|
 A8 | z4 d4- | d4 ^c2 B2 | ^c4 d4 | A4!pp! A4- | A4 ^F2 G2 | A4 E4 | E4 z4 | z4 A4- | A4 ^G2 ^F2 | %76
w: sure,|but|* lan- guish,|faint, and|die, but|* lan- guish,|faint, and|die|in|* her dis-|
 (^G2 A4 G2) | A4 z4 | z8 | z2!mf! e2 d2 c2 | (BAGF E2) ^F2 | ^G3 G G2 A2 | B4 A4 | z8 | %84
w: plea\- * *|sure.||I'll live and|fro\- * * * * lic|in her beau- ty's|trea- sure,||
 z2!f! c2 B2 A2 | (GFED EFG)A | B3 c d2 e2 | d8 | c8 | z8 | z8 | z4!p! c4- | c4 B2 A2 | B6 A2 | %94
w: I'll live and|fro\- * * * * * * lic|in her beau- ty's|trea-|sure,|||But|* lan- guish,|faint, and|
 ^G8 | z4 ^F4- | F4 E2 D2 | E6 D2 | ^C4 z4 | z8 | z8 | z8 | z4 A4- | A4 ^F2 G2 | A4 E4 | E4 z4 | %106
w: die,|but|* lan- guish,|faint, and|~die,||||but|* lan- guish,|faint, and|die,|
 z8 | z4!pp! d4- | d4 ^c2 B2 | ^c4 d4 | e8- | e8 | e2 d4 (^cd) | (e4 B4) | ^c16 |] %115
w: |but|* lan- guish,|faint, and|die||in her dis\- *|plea\- *|sure.|
V:3
!p! E8- | E8 | F6 E2 | D4 D4 | E6 D2 |[M:4/4] (C2 B,2) C4 | B,8 | A,8- | A,4 z4 | z8 | z4!pp! E4 | %11
w: Hard||des- ti-|nies are|love and|beau\- * ty|part-|ed!|||Fair|
 D4 B,4 | C8- | C4 A,4 | B,8 | A,4 A4- | A4 ^G4 | A6!mf! A2 | A2 A2 (AGFE | D2) D2 E3 D | %20
w: Daph- ne|so|* dis-|dain-|ful! dis|* dain-|ful! Cu-|pid, thy shafts * * *|* are too un-|
 (CB,) A,2 E4 | A,2!f! A,2 E2 E2 | (EDCB, A,2) A,2 | (DCB,A, G,2) G,2 | (A,B,) C2 B,4 | A,4 z4 | %26
w: just\- * ly dart-|ed, Cu- pid, thy|shafts * * * * are|too * * * * un-|just\- * ly dart-|ed;|
 z2!p! E2 E3 F | G2 E2 D4 | C2 E2 E3 ^F | ^G2 A4 G2 | A4 z4 | z8 | c8 | c4 G4 | A4 E4 | (G6 F2) | %36
w: Fond love, thy|wounds be pain-|ful, fond love, thy|wounds be pain-|ful:||But|sith my|love- ly|jew\- *|
 E8- | E4"^dim." ^F4 | ^G4 E4 | E6 E2 | E8 | E8 | z8 | z2!mf! c2 B2 A2 | (GFED C2) (B,A,) | %45
w: el|* Is|prov'd so|coy and|cru-|el,||I'll live and|fro\- * * * * lic *|
 E3 E E2 E2 | E4 E4 | z8 | z2!f! A2 G2 F2 | (EDCB, CDE)F | G2 G2 G2 (EF) | G8 | G8 | z8 | z8 | %55
w: in her beau- ty's|trea- sure,||I'll live and|fro\- * * * * * * lic|iun her beau- ty's *|trea-|sure,|||
!p! A8- | A4 ^G2 ^F2 | ^G4 A4 | E6 D2 | ^C4 D4 | A,8 | A,4 z4 | z8 | E8- | E4 D2 ^C2 | B,4 B,4 | %66
w: But|* lan- guish,|faint, and|die in|her dis-|plea-|sure,||but|* lan- guish,|faint, and|
 A,8 | ^F8- | F4 E2 D2 | E3 E D4- | D4 z4 | z4!pp! ^F4- | F4 E2 D2 | E4 E2 D2- | D2 D2 ^C4- | %75
w: die,|but|* lan- guish,|faint, and die,||but|* lan- guish,|faint, and die|* in her|
 C4 (B,2 A,2) | (B,2 ^C2 B,4) | A,8 | z8 | z2!mf! c2 B2 A2 | (GFED C2) (B,A,) | E3 E E2 E2 | %82
w: * dis\- *|plea\- * *|sure.||I'll live and|fro\- * * * * lic *|in her beau- ty's|
 E4 E4 | z8 | z2!f! A2 G2 F2 | (EDCB, CDE)F | G2 G2 G2 (EF) | G8 | G8 | z8 | z8 |!p! A8- | %92
w: trea- sure,||I'll live and|fro\- * * * * * * lic|in her beau- ty's *|trea-|sure,|||But|
 A4 ^G2 ^F2 | ^G4 A4 | E6 D2 | ^C4 D4 | A,8 | A,4 z4 | z8 | E8- | E4 D2 ^C2 | B,4 B,4 | A,8 | %103
w: * lan- guish,|faint, and|die in|her dis-|plea-|sure,||but|* lan- guish,|faint, and|die,|
 ^F8- | F4 E2 D2 | E3 E D4- | D4 z4 | z4!pp! ^F4- | F4 E2 D2 | E4 E2 D2- | D2 D2 ^C4- | %111
w: but|* lan- guish,|faint, and die,||but|* lan- guish,|faint, and die|* in her|
 C4 (B,2 A,2) | (B,4 ^C4 | B,8) | A,16 |] %115
w: * dis\- *|plea\- *||sure.|
V:4
 z8 | z8 | z8 | z8 | z8 |[M:4/4][K:treble-8]!pp! ^G4 A4- | A4 ^G4 | A4 (a2 g2) | f2 e2 d2 A2 | %9
w: |||||Hard des\-|* ti-|nies are *|love and beau- ty|
 e4 e4 | z8 | z4 d4 | c6 d2 | e4 f4 | f2 e4 e2- | e2 (dc) d4 | e8 | z8 | z8 | z8 | z4 z2!f! e2 | %21
w: part- ed!||Fair|Daph- ne|so dis-|dain- ful! so|* dis\- * dain-|ful!||||Cu-|
 e2 e2 (edcB | A2) c2 (cBAG | F2) (dc BAGF) | E2 A4 ^G2 | A8 | z8 | z4 z2!p! G2 | A3 B c2 d2 | e8 | %30
w: pid, thy shafts * * *|* are too * * *|* un\- * * * * *|just- ly dart-|ed;||Fond|love, thy wounds be|pain-|
 e2 e2 a2 ^f2 | ^g2 a2 a2 g2 |"^cresc." =g8 | c4 d4 | e4 c4 | (d4 G4) | G8- | G4 z2"^dim." A2 | %38
w: ful, fond love, thy|wounds be pain- ful:|But|sith my|love- ly|jew\- *|el|* Is|
 e6 (dc) | B2 (d3 cBA) | B8 | c4 z2!mf! e2 | (^fga)f g4 | g4 z4 | z2 e2 e2 (dc) | (BA^G^F E2 c2) | %46
w: prov'd so *|coy and * * *|cru-|el, I'll|live * * and fro-|lic,|I'll live and *|fro * * * * *|
 B4 z2!f! c2 | (def)d e4 | e4 z4 | z2 G2 G2 G2 | (dcBA G2) G2 | (GA) (Bc) d2 d2 | (e6 dc) | %53
w: lic, I'll|live * * and fro-|lic,|I'll live and|fro * * * * lic|in * her * beau- ty's|trea\- * *|
 B4!p! c4 | B8 | A8 | z8 | z8 | z8 | z4 d4- | d4 ^c2 B2 | ^c4 d4 | A4 ^c4- | c4 B2 A2 | B6 A2 | %65
w: sure, But|lan-|guish,||||but|* lan- guish,|faint, and|die, but|* lan- guish,|faint, and|
 ^G4 e4- | e4 d2 ^c2 | d4 A4 | A8- | A4!pp! ^f4- | f4 e2 d2 | e4 A4 | A4 (^c4- | c4 B2 A2) | %74
w: die, but|* lan- guish,|faint, and|die,|* but|* lan- guish,|faint, and|die in||
 B4 ^c2 d2 | e8- | e8 | e6!mf! e2 | (^fga)f g4 | g4 z4 | z2 e2 e2 (dc) | (BA^G^F E2 c2) | %82
w: her dis\- *|plea\-||sure. I'll|live * * and fro-|lic,|I'll live and *|fro * * * * *|
 B4 z2!f! c2 | (def)d e4 | e4 z4 | z2 G2 G2 G2 | (dcBA G2) G2 | (GA) (Bc) d2 d2 | (e6 dc) | %89
w: lic, I'll|live * * and fro-|lic,|I'll live and|fro * * * * lic|in * her * beau- ty's|trea\- * *|
 B4!p! c4 | B8 | A8 | z8 | z8 | z8 | z4 d4- | d4 ^c2 B2 | ^c4 d4 | A4 ^c4- | c4 B2 A2 | B6 A2 | %101
w: sure, But|lan-|guish,||||but|* lan- guish,|faint, and|die, but|* lan- guish,|faint, and|
 ^G4 e4- | e4 d2 ^c2 | d4 A4 | A8- | A4!pp! ^f4- | f4 e2 d2 | e4 A4 | A4 (^c4- | c4 B2 A2) | %110
w: die, but|* lan- guish,|faint, and|die,|* but|* lan- guish,|faint, and|die in||
 B4 ^c2 d2 | e8- | e8 | e8 | e16 |] %115
w: her dis\- *|plea\-|||sure.|

